images/ico/telegram.svg

<svg width="19" height="16" viewBox="0 0 19 16" fill="none" xmlns="http://www.w3.org/2000/svg">
<path d="M17.2853 0.0992597L1.34073 6.24776C0.252584 6.68481 0.258879 7.29184 1.14109 7.56253L5.23469 8.83953L14.7061 2.8637C15.1539 2.59121 15.5631 2.7378 15.2268 3.03636L7.55308 9.96185H7.55128L7.55308 9.96275L7.2707 14.1823C7.68438 14.1823 7.86693 13.9925 8.09895 13.7686L10.0873 11.8351L14.2232 14.89C14.9858 15.31 15.5334 15.0941 15.7232 14.1841L18.4382 1.38885C18.7161 0.274623 18.0128 -0.229883 17.2853 0.0992597Z" fill="#83B3D3"/>
</svg>

<svg width="19" height="16" fill="none" xmlns="http://www.w3.org/2000/svg"><path d="M17.285.1 1.341 6.247c-1.088.437-1.082 1.044-.2 1.315L5.235 8.84l9.471-5.976c.448-.273.857-.126.52.172L7.554 9.962h-.002.002l-.282 4.22c.413 0 .596-.19.828-.413l1.988-1.934 4.136 3.055c.763.42 1.31.204 1.5-.706L18.438 1.39c.278-1.114-.425-1.619-1.153-1.29Z" fill="#83B3D3"/></svg>
